X:1096
T:Emon O Knuck.
C:Irish.
M:3/4
L:1/8
Q:1/4=80
I: :: ::
Z:Jack Campin * www.campin.me.uk * 2009
K:G
G/E/D/E/ |G2 Bd dG|B2 g>f e/d/c/B/ |A2 GB AG      |G4 :|
d3/e//f//|g2 fe ag|gf ed  d3/g//f//|ed`BA G/A/B/d/|e2 g2
G/E/E/E/ |G2 Bd dG|B2 gf  e/d/c/B/ |A2 GB AG      |G4 :|

